P2
100 100
255
111 109 108 107 106 104 103 102 100 99 98 97 95 94 93 91 90 89 88 86 85 84 83 81 80 79 77 76 75 74 72 71 70 68 67 66 65 63 62 61 59 58 57 56 54 53 52 51 49 48 47 46 45 44 43 43 42 41 40 39 39 38 37 36 35 35 34 33 32 31 30 30 29 28 27 26 26 25 24 23 22 22 21 20 19 18 17 17 16 15 14 13 13 12 11 10 9 9 8 7 
113 112 111 109 108 107 105 104 103 102 100 99 98 96 95 94 93 91 90 89 87 86 85 83 82 81 80 78 77 76 74 73 72 71 69 68 67 65 64 63 61 60 59 58 56 55 54 52 51 50 49 48 47 46 46 45 44 43 43 42 41 40 39 39 38 37 36 36 35 34 33 33 32 31 30 30 29 28 27 27 26 25 24 24 23 22 21 21 20 19 18 18 17 16 15 15 14 13 12 12 
116 114 113 112 111 109 108 107 105 104 103 101 100 99 97 96 95 94 92 91 90 88 87 86 84 83 82 80 79 78 77 75 74 73 71 70 69 67 66 65 63 62 61 60 58 57 56 54 53 52 50 50 49 48 48 47 46 46 45 44 43 43 42 41 41 40 39 39 38 37 36 36 35 34 34 33 32 32 31 30 29 29 28 27 27 26 25 25 24 23 22 22 21 20 20 19 18 18 17 16 
118 117 116 114 113 112 110 109 108 106 105 104 102 101 100 98 97 96 95 93 92 91 89 88 87 85 84 83 81 80 79 77 76 75 73 72 71 69 68 67 65 64 63 62 60 59 58 56 55 54 52 52 51 50 50 49 48 48 47 47 46 45 45 44 43 43 42 41 41 40 39 39 38 38 37 36 36 35 34 34 33 32 32 31 30 30 29 29 28 27 27 26 25 25 24 23 23 22 21 21 
121 119 118 117 115 114 113 111 110 109 107 106 105 103 102 101 99 98 97 95 94 93 91 90 89 87 86 85 83 82 81 79 78 77 75 74 73 71 70 69 67 66 65 63 62 61 59 58 57 55 54 54 53 52 52 51 51 50 49 49 48 48 47 47 46 45 45 44 44 43 42 42 41 41 40 40 39 38 38 37 37 36 35 35 34 34 33 33 32 31 31 30 30 29 28 28 27 27 26 26 
123 122 121 119 118 117 115 114 113 111 110 109 107 106 104 103 102 100 99 98 96 95 94 92 91 90 88 87 86 84 83 82 80 79 78 76 75 73 72 71 69 68 67 65 64 63 61 60 59 57 56 55 55 54 54 53 53 52 52 51 51 50 50 49 49 48 48 47 46 46 45 45 44 44 43 43 42 42 41 41 40 40 39 39 38 38 37 36 36 35 35 34 34 33 33 32 32 31 31 30 
126 124 123 122 120 119 118 116 115 114 112 111 110 108 107 105 104 103 101 100 99 97 96 95 93 92 90 89 88 86 85 84 82 81 80 78 77 76 74 73 71 70 69 67 66 65 63 62 61 59 58 57 57 56 56 55 55 55 54 54 53 53 52 52 51 51 50 50 49 49 48 48 47 47 47 46 46 45 45 44 44 43 43 42 42 41 41 40 40 39 39 39 38 38 37 37 36 36 35 35 
128 127 126 124 123 122 120 119 117 116 115 113 112 111 109 108 106 105 104 102 101 100 98 97 95 94 93 91 90 89 87 86 84 83 82 80 79 78 76 75 73 72 71 69 68 67 65 64 62 61 60 59 59 58 58 58 57 57 56 56 56 55 55 54 54 54 53 53 52 52 51 51 51 50 50 49 49 49 48 48 47 47 46 46 46 45 45 44 44 44 43 43 42 42 42 41 41 40 40 39 
131 130 128 127 125 124 123 121 120 118 117 116 114 113 111 110 109 107 106 105 103 102 100 99 98 96 95 93 92 91 89 88 87 85 84 82 81 80 78 77 75 74 73 71 70 69 67 66 64 63 62 61 61 60 60 60 59 59 59 58 58 58 57 57 57 56 56 56 55 55 54 54 54 53 53 53 52 52 52 51 51 51 50 50 49 49 49 48 48 48 47 47 47 46 46 46 45 45 44 44 
133 132 131 129 128 126 125 124 122 121 119 118 117 115 114 112 111 110 108 107 105 104 103 101 100 98 97 96 94 93 91 90 89 87 86 84 83 82 80 79 77 76 75 73 72 70 69 68 66 65 63 63 63 63 62 62 62 61 61 61 60 60 60 60 59 59 59 58 58 58 57 57 57 57 56 56 56 55 55 55 54 54 54 54 53 53 53 52 52 52 51 51 51 51 50 50 50 49 49 49 
136 135 133 132 130 129 127 126 125 123 122 120 119 118 116 115 113 112 111 109 108 106 105 103 102 101 99 98 96 95 94 92 91 89 88 86 85 84 82 81 79 78 77 75 74 72 71 70 68 67 65 65 65 65 64 64 64 64 63 63 63 63 62 62 62 62 61 61 61 61 60 60 60 60 59 59 59 59 58 58 58 58 58 57 57 57 57 56 56 56 56 55 55 55 55 54 54 54 54 53 
138 137 136 134 133 131 130 128 127 126 124 123 121 120 119 117 116 114 113 111 110 109 107 106 104 103 101 100 99 97 96 94 93 91 90 89 87 86 84 83 81 80 79 77 76 74 73 71 70 69 67 67 67 67 66 66 66 66 66 65 65 65 65 65 65 64 64 64 64 64 63 63 63 63 63 62 62 62 62 62 62 61 61 61 61 61 60 60 60 60 60 60 59 59 59 59 59 58 58 58 
141 140 138 137 135 134 132 131 129 128 127 125 124 122 121 119 118 117 115 114 112 111 109 108 106 105 104 102 101 99 98 96 95 93 92 91 89 88 86 85 83 82 81 79 78 76 75 73 72 70 69 69 69 69 68 68 68 68 68 68 68 68 67 67 67 67 67 67 67 67 66 66 66 66 66 66 66 66 65 65 65 65 65 65 65 64 64 64 64 64 64 64 64 63 63 63 63 63 63 63 
144 142 141 139 138 136 135 133 132 130 129 128 126 125 123 122 120 119 117 116 114 113 112 110 109 107 106 104 103 101 100 98 97 96 94 93 91 90 88 87 85 84 82 81 80 78 77 75 74 72 71 71 71 71 71 71 70 70 70 70 70 70 70 70 70 70 70 70 70 69 69 69 69 69 69 69 69 69 69 69 69 69 69 68 68 68 68 68 68 68 68 68 68 68 68 68 68 67 67 67 
146 145 143 142 140 139 137 136 134 133 131 130 128 127 126 124 123 121 120 118 117 115 114 112 111 109 108 106 105 104 102 101 99 98 96 95 93 92 90 89 87 86 84 83 82 80 79 77 76 74 73 73 73 73 73 73 73 73 73 73 73 73 73 73 73 72 72 72 72 72 72 72 72 72 72 72 72 72 72 72 72 72 72 72 72 72 72 72 72 72 72 72 72 72 72 72 72 72 72 72 
149 147 146 144 143 141 140 138 137 135 134 132 131 129 128 126 125 123 122 120 119 118 116 115 113 112 110 109 107 106 104 103 101 100 98 97 95 94 92 91 89 88 86 85 83 82 81 79 78 76 75 75 75 75 75 75 75 75 75 75 75 75 75 75 75 75 75 75 75 75 75 75 75 76 76 76 76 76 76 76 76 76 76 76 76 76 76 76 76 76 76 76 76 76 76 76 76 77 77 77 
151 150 148 147 145 144 142 141 139 138 136 135 133 132 130 129 127 126 124 123 121 120 118 117 115 114 112 111 109 108 106 105 103 102 100 99 97 96 94 93 91 90 88 87 85 84 82 81 79 78 76 77 77 77 77 77 77 77 77 77 77 78 78 78 78 78 78 78 78 78 78 78 79 79 79 79 79 79 79 79 79 79 80 80 80 80 80 80 80 80 80 80 81 81 81 81 81 81 81 81 
154 152 151 149 148 146 145 143 142 140 139 137 136 134 133 131 130 128 127 125 124 122 120 119 117 116 114 113 111 110 108 107 105 104 102 101 99 98 96 95 93 92 90 89 87 86 84 83 81 80 78 78 79 79 79 79 79 79 80 80 80 80 80 80 80 81 81 81 81 81 81 82 82 82 82 82 82 82 83 83 83 83 83 83 84 84 84 84 84 84 84 85 85 85 85 85 85 86 86 86 
156 155 153 152 150 149 147 146 144 142 141 139 138 136 135 133 132 130 129 127 126 124 123 121 120 118 117 115 114 112 111 109 108 106 104 103 101 100 98 97 95 94 92 91 89 88 86 85 83 82 80 80 81 81 81 81 81 82 82 82 82 82 83 83 83 83 84 84 84 84 84 85 85 85 85 85 86 86 86 86 87 87 87 87 87 88 88 88 88 88 89 89 89 89 89 90 90 90 90 91 
159 157 156 154 153 151 149 148 146 145 143 142 140 139 137 136 134 133 131 130 128 126 125 123 122 120 119 117 116 114 113 111 110 108 107 105 103 102 100 99 97 96 94 93 91 90 88 87 85 84 82 82 83 83 83 83 84 84 84 84 85 85 85 86 86 86 86 87 87 87 87 88 88 88 88 89 89 89 90 90 90 90 91 91 91 91 92 92 92 92 93 93 93 94 94 94 94 95 95 95 
161 160 158 157 155 153 152 150 149 147 146 144 143 141 140 138 136 135 133 132 130 129 127 126 124 123 121 119 118 116 115 113 112 110 109 107 106 104 102 101 99 98 96 95 93 92 90 89 87 85 84 84 85 85 85 86 86 86 86 87 87 87 88 88 88 89 89 89 90 90 90 91 91 91 92 92 92 93 93 93 94 94 94 95 95 95 96 96 96 97 97 97 98 98 98 99 99 99 99 100 
164 162 161 159 158 156 154 153 151 150 148 147 145 143 142 140 139 137 136 134 133 131 129 128 126 125 123 122 120 119 117 115 114 112 111 109 108 106 104 103 101 100 98 97 95 94 92 90 89 87 86 86 87 87 87 88 88 88 89 89 90 90 90 91 91 91 92 92 93 93 93 94 94 95 95 95 96 96 96 97 97 98 98 98 99 99 99 100 100 101 101 101 102 102 103 103 103 104 104 104 
166 165 163 162 160 158 157 155 154 152 151 149 147 146 144 143 141 140 138 136 135 133 132 130 129 127 125 124 122 121 119 117 116 114 113 111 110 108 106 105 103 102 100 99 97 95 94 92 91 89 88 88 88 89 89 90 90 91 91 92 92 92 93 93 94 94 95 95 95 96 96 97 97 98 98 99 99 99 100 100 101 101 102 102 103 103 103 104 104 105 105 106 106 106 107 107 108 108 109 109 
169 167 166 164 162 161 159 158 156 155 153 151 150 148 147 145 143 142 140 139 137 135 134 132 131 129 128 126 124 123 121 120 118 116 115 113 112 110 109 107 105 104 102 101 99 97 96 94 93 91 89 90 90 91 91 92 92 93 93 94 94 95 95 96 96 97 97 98 98 99 99 100 100 101 101 102 102 103 103 104 104 105 105 106 106 107 107 108 108 109 109 110 110 111 111 112 112 113 113 114 
171 170 168 167 165 163 162 160 159 157 155 154 152 151 149 147 146 144 143 141 139 138 136 135 133 131 130 128 127 125 123 122 120 119 117 115 114 112 111 109 107 106 104 103 101 99 98 96 95 93 91 92 92 93 94 94 95 95 96 96 97 97 98 99 99 100 100 101 101 102 102 103 103 104 105 105 106 106 107 107 108 108 109 110 110 111 111 112 112 113 113 114 115 115 116 116 117 117 118 118 
174 172 171 169 167 166 164 163 161 159 158 156 154 153 151 150 148 146 145 143 142 140 138 137 135 134 132 130 129 127 125 124 122 121 119 117 116 114 113 111 109 108 106 104 103 101 100 98 96 95 93 94 94 95 96 96 97 97 98 99 99 100 100 101 102 102 103 104 104 105 105 106 107 107 108 108 109 110 110 111 111 112 113 113 114 115 115 116 116 117 118 118 119 119 120 121 121 122 122 123 
176 175 173 172 170 168 167 165 163 162 160 158 157 155 154 152 150 149 147 145 144 142 141 139 137 136 134 132 131 129 128 126 124 123 121 119 118 116 115 113 111 110 108 106 105 103 102 100 98 97 95 96 96 97 98 98 99 100 100 101 102 102 103 104 104 105 106 106 107 108 108 109 110 110 111 112 112 113 114 114 115 116 116 117 118 118 119 120 120 121 122 122 123 124 124 125 126 126 127 128 
179 177 176 174 172 171 169 167 166 164 163 161 159 158 156 154 153 151 149 148 146 144 143 141 140 138 136 135 133 131 130 128 126 125 123 122 120 118 117 115 113 112 110 108 107 105 103 102 100 99 97 98 98 99 100 101 101 102 103 103 104 105 106 106 107 108 108 109 110 111 111 112 113 114 114 115 116 116 117 118 119 119 120 121 121 122 123 124 124 125 126 127 127 128 129 129 130 131 132 132 
181 180 178 176 175 173 172 170 168 167 165 163 162 160 158 157 155 153 152 150 148 147 145 143 142 140 138 137 135 133 132 130 129 127 125 124 122 120 119 117 115 114 112 110 109 107 105 104 102 100 99 100 100 101 102 103 103 104 105 106 107 107 108 109 110 110 111 112 113 114 114 115 116 117 117 118 119 120 121 121 122 123 124 124 125 126 127 128 128 129 130 131 132 132 133 134 135 135 136 137 
184 182 181 179 177 176 174 172 171 169 167 166 164 162 161 159 157 156 154 152 151 149 147 146 144 142 141 139 137 136 134 132 131 129 127 126 124 122 121 119 117 116 114 112 111 109 107 106 104 102 101 101 102 103 104 105 106 106 107 108 109 110 111 111 112 113 114 115 116 117 117 118 119 120 121 122 122 123 124 125 126 127 127 128 129 130 131 132 132 133 134 135 136 137 137 138 139 140 141 142 
186 185 183 181 180 178 176 175 173 171 170 168 166 165 163 161 160 158 156 155 153 151 150 148 146 144 143 141 139 138 136 134 133 131 129 128 126 124 123 121 119 118 116 114 113 111 109 108 106 104 102 103 104 105 106 107 108 109 110 111 111 112 113 114 115 116 117 118 119 119 120 121 122 123 124 125 126 127 127 128 129 130 131 132 133 134 135 136 136 137 138 139 140 141 142 143 144 144 145 146 
189 187 186 184 182 181 179 177 175 174 172 170 169 167 165 164 162 160 159 157 155 153 152 150 148 147 145 143 142 140 138 137 135 133 131 130 128 126 125 123 121 120 118 116 114 113 111 109 108 106 104 105 106 107 108 109 110 111 112 113 114 115 116 117 118 119 120 120 121 122 123 124 125 126 127 128 129 130 131 132 133 134 135 136 137 138 139 139 140 141 142 143 144 145 146 147 148 149 150 151 
192 190 188 186 185 183 181 180 178 176 174 173 171 169 168 166 164 163 161 159 157 156 154 152 151 149 147 145 144 142 140 139 137 135 134 132 130 128 127 125 123 122 120 118 116 115 113 111 110 108 106 107 108 109 110 111 112 113 114 115 116 117 118 119 120 121 122 123 124 125 126 127 128 129 130 131 132 133 134 135 136 137 138 139 140 141 142 143 144 145 146 147 148 150 151 152 153 154 155 156 
194 192 191 189 187 185 184 182 180 179 177 175 173 172 170 168 167 165 163 161 160 158 156 155 153 151 149 148 146 144 142 141 139 137 136 134 132 130 129 127 125 124 122 120 118 117 115 113 111 110 108 109 110 111 112 113 114 116 117 118 119 120 121 122 123 124 125 126 127 128 129 130 131 133 134 135 136 137 138 139 140 141 142 143 144 145 146 147 148 150 151 152 153 154 155 156 157 158 159 160 
197 195 193 191 190 188 186 184 183 181 179 178 176 174 172 171 169 167 165 164 162 160 158 157 155 153 152 150 148 146 145 143 141 139 138 136 134 132 131 129 127 126 124 122 120 119 117 115 113 112 110 111 112 113 114 116 117 118 119 120 121 122 123 124 126 127 128 129 130 131 132 133 135 136 137 138 139 140 141 142 144 145 146 147 148 149 150 151 153 154 155 156 157 158 159 160 161 163 164 165 
199 197 196 194 192 190 189 187 185 183 182 180 178 176 175 173 171 169 168 166 164 162 161 159 157 155 154 152 150 148 147 145 143 141 140 138 136 134 133 131 129 127 126 124 122 121 119 117 115 114 112 113 114 115 116 118 119 120 121 122 124 125 126 127 128 129 131 132 133 134 135 137 138 139 140 141 142 144 145 146 147 148 149 151 152 153 154 155 157 158 159 160 161 162 164 165 166 167 168 169 
202 200 198 196 195 193 191 189 188 186 184 182 181 179 177 175 173 172 170 168 166 165 163 161 159 158 156 154 152 151 149 147 145 144 142 140 138 137 135 133 131 129 128 126 124 122 121 119 117 115 114 115 116 117 119 120 121 122 124 125 126 127 128 130 131 132 133 135 136 137 138 140 141 142 143 144 146 147 148 149 151 152 153 154 156 157 158 159 161 162 163 164 165 167 168 169 170 172 173 174 
204 202 201 199 197 195 194 192 190 188 186 185 183 181 179 178 176 174 172 170 169 167 165 163 162 160 158 156 155 153 151 149 147 146 144 142 140 139 137 135 133 131 130 128 126 124 123 121 119 117 115 117 118 119 121 122 123 125 126 127 128 130 131 132 134 135 136 137 139 140 141 143 144 145 146 148 149 150 152 153 154 156 157 158 159 161 162 163 165 166 167 168 170 171 172 174 175 176 177 179 
207 205 203 201 200 198 196 194 192 191 189 187 185 183 182 180 178 176 175 173 171 169 167 166 164 162 160 158 157 155 153 151 150 148 146 144 142 141 139 137 135 133 132 130 128 126 125 123 121 119 117 119 120 121 123 124 125 127 128 129 131 132 134 135 136 138 139 140 142 143 144 146 147 148 150 151 152 154 155 156 158 159 160 162 163 165 166 167 169 170 171 173 174 175 177 178 179 181 182 183 
209 207 206 204 202 200 198 197 195 193 191 189 188 186 184 182 180 179 177 175 173 171 170 168 166 164 162 161 159 157 155 153 152 150 148 146 144 143 141 139 137 135 134 132 130 128 126 125 123 121 119 121 122 123 125 126 128 129 130 132 133 135 136 137 139 140 142 143 144 146 147 149 150 152 153 154 156 157 159 160 161 163 164 166 167 168 170 171 173 174 175 177 178 180 181 182 184 185 187 188 
212 210 208 206 205 203 201 199 197 195 194 192 190 188 186 185 183 181 179 177 175 174 172 170 168 166 165 163 161 159 157 156 154 152 150 148 146 145 143 141 139 137 136 134 132 130 128 127 125 123 121 123 124 125 127 128 130 131 133 134 136 137 139 140 142 143 144 146 147 149 150 152 153 155 156 158 159 161 162 163 165 166 168 169 171 172 174 175 177 178 180 181 182 184 185 187 188 190 191 193 
214 212 211 209 207 205 203 202 200 198 196 194 192 191 189 187 185 183 181 180 178 176 174 172 170 169 167 165 163 161 159 158 156 154 152 150 149 147 145 143 141 139 138 136 134 132 130 128 127 125 123 124 126 127 129 131 132 134 135 137 138 140 141 143 144 146 147 149 150 152 153 155 156 158 159 161 162 164 165 167 168 170 172 173 175 176 178 179 181 182 184 185 187 188 190 191 193 194 196 197 
217 215 213 211 209 208 206 204 202 200 198 197 195 193 191 189 187 186 184 182 180 178 176 174 173 171 169 167 165 163 162 160 158 156 154 152 151 149 147 145 143 141 140 138 136 134 132 130 128 127 125 126 128 130 131 133 134 136 137 139 141 142 144 145 147 148 150 152 153 155 156 158 159 161 163 164 166 167 169 170 172 174 175 177 178 180 182 183 185 186 188 189 191 193 194 196 197 199 200 202 
219 217 216 214 212 210 208 206 205 203 201 199 197 195 193 192 190 188 186 184 182 180 179 177 175 173 171 169 167 166 164 162 160 158 156 154 153 151 149 147 145 143 141 140 138 136 134 132 130 129 127 128 130 132 133 135 136 138 140 141 143 145 146 148 150 151 153 154 156 158 159 161 163 164 166 167 169 171 172 174 176 177 179 181 182 184 185 187 189 190 192 194 195 197 198 200 202 203 205 207 
222 220 218 216 214 213 211 209 207 205 203 201 199 198 196 194 192 190 188 186 185 183 181 179 177 175 173 171 170 168 166 164 162 160 158 157 155 153 151 149 147 145 143 142 140 138 136 134 132 130 129 130 132 134 135 137 139 140 142 144 145 147 149 150 152 154 156 157 159 161 162 164 166 167 169 171 172 174 176 177 179 181 183 184 186 188 189 191 193 194 196 198 199 201 203 205 206 208 210 211 
224 223 221 219 217 215 213 211 209 207 206 204 202 200 198 196 194 192 191 189 187 185 183 181 179 177 176 174 172 170 168 166 164 162 160 159 157 155 153 151 149 147 145 144 142 140 138 136 134 132 130 132 134 136 137 139 141 143 144 146 148 150 151 153 155 157 158 160 162 164 165 167 169 171 172 174 176 178 179 181 183 184 186 188 190 191 193 195 197 198 200 202 204 205 207 209 211 212 214 216 
227 225 223 221 219 217 216 214 212 210 208 206 204 202 200 199 197 195 193 191 189 187 185 183 181 180 178 176 174 172 170 168 166 164 163 161 159 157 155 153 151 149 147 145 144 142 140 138 136 134 132 134 136 138 139 141 143 145 147 148 150 152 154 156 157 159 161 163 165 166 168 170 172 174 175 177 179 181 183 185 186 188 190 192 194 195 197 199 201 203 204 206 208 210 212 213 215 217 219 221 
229 228 226 224 222 220 218 216 214 212 210 208 207 205 203 201 199 197 195 193 191 189 187 186 184 182 180 178 176 174 172 170 168 167 165 163 161 159 157 155 153 151 149 147 146 144 142 140 138 136 134 136 138 140 142 143 145 147 149 151 153 155 156 158 160 162 164 166 168 169 171 173 175 177 179 181 182 184 186 188 190 192 194 195 197 199 201 203 205 207 208 210 212 214 216 218 220 221 223 225 
232 230 228 226 224 222 220 219 217 215 213 211 209 207 205 203 201 199 197 195 194 192 190 188 186 184 182 180 178 176 174 172 171 169 167 165 163 161 159 157 155 153 151 149 147 146 144 142 140 138 136 138 140 142 144 146 147 149 151 153 155 157 159 161 163 165 167 169 170 172 174 176 178 180 182 184 186 188 190 192 193 195 197 199 201 203 205 207 209 211 213 215 216 218 220 222 224 226 228 230 
235 233 231 229 227 225 223 221 219 217 215 213 211 209 207 206 204 202 200 198 196 194 192 190 188 186 184 182 180 178 176 175 173 171 169 167 165 163 161 159 157 155 153 151 149 147 146 144 142 140 138 140 142 144 146 148 150 152 154 156 158 160 161 163 165 167 169 171 173 175 177 179 181 183 185 187 189 191 193 195 197 199 201 203 205 207 209 211 213 215 217 219 221 223 225 227 229 231 233 234 
237 235 233 231 229 227 225 223 221 220 218 216 214 212 210 208 206 204 202 200 198 196 194 192 190 188 186 184 183 181 179 177 175 173 171 169 167 165 163 161 159 157 155 153 151 149 147 146 144 142 140 142 144 146 148 150 152 154 156 158 160 162 164 166 168 170 172 174 176 178 180 182 184 186 188 190 192 194 197 199 201 203 205 207 209 211 213 215 217 219 221 223 225 227 229 231 233 235 237 239 
235 233 231 229 227 225 223 221 219 217 215 214 212 210 208 206 204 202 200 198 196 195 193 191 189 187 185 183 181 179 177 176 174 172 170 168 166 164 162 160 158 156 155 153 151 149 147 145 143 141 139 141 143 145 147 149 151 153 155 157 159 161 163 165 167 169 171 173 175 177 179 181 183 185 187 189 191 193 195 197 199 201 203 205 207 209 211 213 215 217 219 221 223 225 227 229 231 233 235 236 
232 230 228 226 225 223 221 219 217 215 213 212 210 208 206 204 202 200 199 197 195 193 191 189 187 185 184 182 180 178 176 174 172 171 169 167 165 163 161 159 158 156 154 152 150 148 146 145 143 141 139 141 143 145 147 149 151 153 154 156 158 160 162 164 166 168 170 172 174 176 178 180 182 184 185 187 189 191 193 195 197 199 201 203 205 207 209 211 213 214 216 218 220 222 224 226 228 230 232 234 
229 228 226 224 222 220 219 217 215 213 211 209 208 206 204 202 200 199 197 195 193 191 190 188 186 184 182 180 179 177 175 173 171 170 168 166 164 162 160 159 157 155 153 151 150 148 146 144 142 140 139 141 142 144 146 148 150 152 154 156 158 159 161 163 165 167 169 171 173 175 176 178 180 182 184 186 188 190 192 193 195 197 199 201 203 205 207 209 210 212 214 216 218 220 222 224 226 227 229 231 
227 225 223 222 220 218 216 215 213 211 209 207 206 204 202 200 199 197 195 193 191 190 188 186 184 183 181 179 177 176 174 172 170 168 167 165 163 161 160 158 156 154 153 151 149 147 145 144 142 140 138 140 142 144 146 148 149 151 153 155 157 159 160 162 164 166 168 170 171 173 175 177 179 181 183 184 186 188 190 192 194 195 197 199 201 203 205 206 208 210 212 214 216 218 219 221 223 225 227 229 
224 223 221 219 217 216 214 212 211 209 207 205 204 202 200 198 197 195 193 192 190 188 186 185 183 181 179 178 176 174 173 171 169 167 166 164 162 160 159 157 155 154 152 150 148 147 145 143 141 140 138 140 142 143 145 147 149 151 152 154 156 158 160 161 163 165 167 169 170 172 174 176 177 179 181 183 185 186 188 190 192 194 195 197 199 201 203 204 206 208 210 212 213 215 217 219 221 222 224 226 
222 220 218 217 215 213 212 210 208 207 205 203 202 200 198 197 195 193 192 190 188 187 185 183 181 180 178 176 175 173 171 170 168 166 165 163 161 160 158 156 155 153 151 149 148 146 144 143 141 139 138 139 141 143 145 146 148 150 152 153 155 157 159 160 162 164 166 167 169 171 173 174 176 178 180 181 183 185 187 188 190 192 194 195 197 199 201 202 204 206 208 209 211 213 215 216 218 220 222 223 
219 218 216 214 213 211 209 208 206 205 203 201 200 198 196 195 193 191 190 188 187 185 183 182 180 178 177 175 173 172 170 168 167 165 164 162 160 159 157 155 154 152 150 149 147 146 144 142 141 139 137 139 141 142 144 146 148 149 151 153 154 156 158 159 161 163 165 166 168 170 171 173 175 176 178 180 182 183 185 187 188 190 192 193 195 197 199 200 202 204 205 207 209 210 212 214 216 217 219 221 
217 215 214 212 210 209 207 206 204 202 201 199 198 196 194 193 191 190 188 186 185 183 182 180 179 177 175 174 172 171 169 167 166 164 163 161 159 158 156 155 153 151 150 148 147 145 143 142 140 139 137 139 140 142 144 145 147 149 150 152 154 155 157 159 160 162 163 165 167 168 170 172 173 175 177 178 180 182 183 185 187 188 190 192 193 195 197 198 200 201 203 205 206 208 210 211 213 215 216 218 
214 213 211 210 208 207 205 203 202 200 199 197 196 194 193 191 189 188 186 185 183 182 180 179 177 175 174 172 171 169 168 166 165 163 162 160 158 157 155 154 152 151 149 148 146 144 143 141 140 138 137 138 140 142 143 145 146 148 150 151 153 154 156 158 159 161 162 164 166 167 169 170 172 174 175 177 178 180 182 183 185 186 188 190 191 193 194 196 198 199 201 203 204 206 207 209 211 212 214 215 
212 210 209 207 206 204 203 201 200 198 197 195 194 192 191 189 188 186 185 183 182 180 179 177 176 174 173 171 170 168 167 165 163 162 160 159 157 156 154 153 151 150 148 147 145 144 142 141 139 138 136 138 139 141 143 144 146 147 149 150 152 153 155 157 158 160 161 163 164 166 168 169 171 172 174 175 177 178 180 182 183 185 186 188 189 191 192 194 196 197 199 200 202 203 205 206 208 210 211 213 
209 208 206 205 203 202 200 199 197 196 195 193 192 190 189 187 186 184 183 181 180 178 177 176 174 173 171 170 168 167 165 164 162 161 159 158 157 155 154 152 151 149 148 146 145 143 142 140 139 137 136 138 139 141 142 144 145 147 148 150 151 153 154 156 157 159 160 162 163 165 166 168 169 171 172 174 175 177 178 180 181 183 184 186 187 189 190 192 193 195 196 198 199 201 203 204 206 207 209 210 
207 205 204 202 201 200 198 197 195 194 192 191 190 188 187 185 184 183 181 180 178 177 175 174 173 171 170 168 167 166 164 163 161 160 158 157 156 154 153 151 150 148 147 146 144 143 141 140 139 137 136 137 139 140 142 143 144 146 147 149 150 152 153 155 156 158 159 161 162 164 165 166 168 169 171 172 174 175 177 178 180 181 183 184 185 187 188 190 191 193 194 196 197 199 200 202 203 205 206 207 
204 203 201 200 199 197 196 195 193 192 190 189 188 186 185 184 182 181 179 178 177 175 174 173 171 170 168 167 166 164 163 161 160 159 157 156 155 153 152 150 149 148 146 145 144 142 141 139 138 137 135 137 138 140 141 142 144 145 147 148 150 151 152 154 155 157 158 159 161 162 164 165 167 168 169 171 172 174 175 176 178 179 181 182 184 185 186 188 189 191 192 193 195 196 198 199 201 202 203 205 
202 200 199 198 196 195 194 192 191 190 188 187 186 184 183 182 180 179 178 176 175 174 172 171 170 168 167 166 164 163 162 160 159 158 156 155 154 152 151 150 148 147 146 144 143 142 140 139 138 136 135 136 138 139 141 142 143 145 146 147 149 150 151 153 154 156 157 158 160 161 162 164 165 167 168 169 171 172 173 175 176 177 179 180 182 183 184 186 187 188 190 191 193 194 195 197 198 199 201 202 
199 198 197 195 194 193 191 190 189 187 186 185 184 182 181 180 178 177 176 175 173 172 171 169 168 167 166 164 163 162 160 159 158 157 155 154 153 151 150 149 148 146 145 144 142 141 140 139 137 136 135 136 137 139 140 141 143 144 145 147 148 149 151 152 153 155 156 157 159 160 161 162 164 165 166 168 169 170 172 173 174 176 177 178 180 181 182 184 185 186 188 189 190 192 193 194 196 197 198 200 
197 195 194 193 192 190 189 188 187 185 184 183 182 180 179 178 177 175 174 173 172 170 169 168 167 165 164 163 162 160 159 158 157 156 154 153 152 151 149 148 147 146 144 143 142 141 139 138 137 136 134 136 137 138 139 141 142 143 145 146 147 148 150 151 152 153 155 156 157 159 160 161 162 164 165 166 168 169 170 171 173 174 175 176 178 179 180 182 183 184 185 187 188 189 190 192 193 194 196 197 
194 193 192 190 189 188 187 186 184 183 182 181 180 178 177 176 175 174 172 171 170 169 168 166 165 164 163 162 160 159 158 157 156 154 153 152 151 150 148 147 146 145 144 142 141 140 139 138 136 135 134 135 136 138 139 140 141 143 144 145 146 148 149 150 151 152 154 155 156 157 159 160 161 162 164 165 166 167 168 170 171 172 173 175 176 177 178 179 181 182 183 184 186 187 188 189 191 192 193 194 
191 190 189 188 187 186 185 183 182 181 180 179 178 176 175 174 173 172 171 170 168 167 166 165 164 163 161 160 159 158 157 156 155 153 152 151 150 149 148 146 145 144 143 142 141 139 138 137 136 135 134 135 136 137 138 140 141 142 143 144 146 147 148 149 150 151 153 154 155 156 157 159 160 161 162 163 164 166 167 168 169 170 171 173 174 175 176 177 179 180 181 182 183 184 186 187 188 189 190 192 
189 188 187 186 185 183 182 181 180 179 178 177 176 175 173 172 171 170 169 168 167 166 165 163 162 161 160 159 158 157 156 154 153 152 151 150 149 148 147 146 144 143 142 141 140 139 138 137 136 134 133 135 136 137 138 139 140 141 142 144 145 146 147 148 149 150 152 153 154 155 156 157 158 159 161 162 163 164 165 166 167 169 170 171 172 173 174 175 176 178 179 180 181 182 183 184 186 187 188 189 
186 185 184 183 182 181 180 179 178 177 176 175 174 173 171 170 169 168 167 166 165 164 163 162 161 160 159 158 157 155 154 153 152 151 150 149 148 147 146 145 144 143 142 141 139 138 137 136 135 134 133 134 135 136 137 138 140 141 142 143 144 145 146 147 148 149 150 152 153 154 155 156 157 158 159 160 161 162 163 165 166 167 168 169 170 171 172 173 174 175 177 178 179 180 181 182 183 184 185 186 
184 183 182 181 180 179 178 177 176 175 174 173 172 171 170 169 168 166 165 164 163 162 161 160 159 158 157 156 155 154 153 152 151 150 149 148 147 146 145 144 143 142 141 140 139 138 137 136 135 134 133 134 135 136 137 138 139 140 141 142 143 144 145 146 147 148 149 150 151 152 154 155 156 157 158 159 160 161 162 163 164 165 166 167 168 169 170 171 172 173 174 175 176 177 178 179 181 182 183 184 
181 180 179 178 177 176 175 175 174 173 172 171 170 169 168 167 166 165 164 163 162 161 160 159 158 157 156 155 154 153 152 151 150 149 148 147 146 145 144 143 142 141 140 139 138 137 136 135 134 133 132 133 134 135 136 137 138 139 140 141 142 143 144 145 146 147 148 149 150 151 152 153 154 155 156 157 158 159 160 161 162 163 164 165 166 167 168 169 170 171 172 173 174 175 176 177 178 179 180 181 
179 178 177 176 175 174 173 172 171 170 169 169 168 167 166 165 164 163 162 161 160 159 158 157 156 155 155 154 153 152 151 150 149 148 147 146 145 144 143 142 141 140 140 139 138 137 136 135 134 133 132 133 134 135 136 137 138 139 140 141 142 142 143 144 145 146 147 148 149 150 151 152 153 154 155 156 157 158 159 159 160 161 162 163 164 165 166 167 168 169 170 171 172 173 174 175 176 176 177 178 
176 175 175 174 173 172 171 170 169 168 167 166 166 165 164 163 162 161 160 159 158 158 157 156 155 154 153 152 151 150 150 149 148 147 146 145 144 143 142 142 141 140 139 138 137 136 135 134 134 133 132 133 134 134 135 136 137 138 139 140 141 142 142 143 144 145 146 147 148 149 150 151 151 152 153 154 155 156 157 158 159 160 160 161 162 163 164 165 166 167 168 169 169 170 171 172 173 174 175 176 
174 173 172 171 170 170 169 168 167 166 165 164 164 163 162 161 160 159 159 158 157 156 155 154 153 153 152 151 150 149 148 147 147 146 145 144 143 142 142 141 140 139 138 137 136 136 135 134 133 132 131 132 133 134 135 136 136 137 138 139 140 141 142 142 143 144 145 146 147 148 148 149 150 151 152 153 154 154 155 156 157 158 159 159 160 161 162 163 164 165 165 166 167 168 169 170 171 171 172 173 
171 170 170 169 168 167 166 166 165 164 163 162 162 161 160 159 158 158 157 156 155 154 154 153 152 151 150 150 149 148 147 146 146 145 144 143 142 142 141 140 139 138 137 137 136 135 134 133 133 132 131 132 133 133 134 135 136 137 137 138 139 140 141 142 142 143 144 145 146 146 147 148 149 150 150 151 152 153 154 154 155 156 157 158 158 159 160 161 162 162 163 164 165 166 166 167 168 169 170 170 
169 168 167 166 166 165 164 163 163 162 161 160 160 159 158 157 157 156 155 154 154 153 152 151 150 150 149 148 147 147 146 145 144 144 143 142 141 141 140 139 138 138 137 136 135 135 134 133 132 131 131 131 132 133 134 135 135 136 137 138 138 139 140 141 141 142 143 144 144 145 146 147 147 148 149 150 150 151 152 153 153 154 155 156 156 157 158 159 159 160 161 162 163 163 164 165 166 166 167 168 
166 165 165 164 163 163 162 161 160 160 159 158 158 157 156 155 155 154 153 153 152 151 150 150 149 148 148 147 146 145 145 144 143 143 142 141 140 140 139 138 138 137 136 135 135 134 133 133 132 131 130 131 132 133 133 134 135 135 136 137 137 138 139 140 140 141 142 142 143 144 145 145 146 147 147 148 149 150 150 151 152 152 153 154 155 155 156 157 157 158 159 159 160 161 162 162 163 164 164 165 
164 163 162 162 161 160 160 159 158 158 157 156 156 155 154 154 153 152 152 151 150 150 149 148 148 147 146 146 145 144 143 143 142 141 141 140 139 139 138 137 137 136 135 135 134 133 133 132 131 131 130 131 131 132 133 133 134 135 135 136 137 137 138 139 139 140 141 141 142 143 143 144 145 145 146 147 147 148 149 149 150 151 151 152 153 153 154 155 155 156 157 157 158 159 159 160 161 161 162 163 
161 160 160 159 159 158 157 157 156 155 155 154 154 153 152 152 151 150 150 149 149 148 147 147 146 145 145 144 144 143 142 142 141 140 140 139 139 138 137 137 136 135 135 134 133 133 132 132 131 130 130 130 131 132 132 133 133 134 135 135 136 136 137 138 138 139 140 140 141 141 142 143 143 144 144 145 146 146 147 148 148 149 149 150 151 151 152 152 153 154 154 155 156 156 157 157 158 159 159 160 
159 158 157 157 156 156 155 155 154 153 153 152 152 151 150 150 149 149 148 147 147 146 146 145 145 144 143 143 142 142 141 140 140 139 139 138 138 137 136 136 135 135 134 133 133 132 132 131 131 130 129 130 131 131 132 132 133 133 134 135 135 136 136 137 137 138 138 139 140 140 141 141 142 142 143 144 144 145 145 146 146 147 148 148 149 149 150 150 151 152 152 153 153 154 154 155 156 156 157 157 
156 156 155 154 154 153 153 152 152 151 151 150 150 149 149 148 147 147 146 146 145 145 144 144 143 143 142 141 141 140 140 139 139 138 138 137 137 136 136 135 134 134 133 133 132 132 131 131 130 130 129 130 130 131 131 132 132 133 133 134 134 135 135 136 136 137 137 138 138 139 139 140 141 141 142 142 143 143 144 144 145 145 146 146 147 147 148 148 149 149 150 150 151 151 152 153 153 154 154 155 
154 153 153 152 152 151 151 150 150 149 149 148 148 147 147 146 146 145 145 144 144 143 143 142 142 141 141 140 140 139 139 138 138 137 137 136 136 135 135 134 134 133 133 132 132 131 131 130 130 129 129 129 130 130 131 131 132 132 133 133 133 134 134 135 135 136 136 137 137 138 138 139 139 140 140 141 141 142 142 142 143 143 144 144 145 145 146 146 147 147 148 148 149 149 150 150 151 151 151 152 
151 151 150 150 149 149 148 148 147 147 146 146 146 145 145 144 144 143 143 142 142 142 141 141 140 140 139 139 138 138 137 137 137 136 136 135 135 134 134 133 133 132 132 132 131 131 130 130 129 129 128 129 129 130 130 131 131 131 132 132 133 133 134 134 134 135 135 136 136 137 137 137 138 138 139 139 139 140 140 141 141 142 142 142 143 143 144 144 145 145 145 146 146 147 147 148 148 148 149 149 
148 148 148 147 147 146 146 146 145 145 144 144 144 143 143 142 142 142 141 141 140 140 139 139 139 138 138 137 137 137 136 136 135 135 135 134 134 133 133 133 132 132 131 131 131 130 130 129 129 128 128 128 129 129 130 130 130 131 131 131 132 132 133 133 133 134 134 135 135 135 136 136 136 137 137 138 138 138 139 139 139 140 140 141 141 141 142 142 142 143 143 144 144 144 145 145 146 146 146 147 
146 146 145 145 144 144 144 143 143 143 142 142 142 141 141 140 140 140 139 139 139 138 138 138 137 137 136 136 136 135 135 135 134 134 134 133 133 132 132 132 131 131 131 130 130 130 129 129 128 128 128 128 128 129 129 129 130 130 130 131 131 131 132 132 132 133 133 133 134 134 134 135 135 135 136 136 136 137 137 137 138 138 138 139 139 139 140 140 140 141 141 141 142 142 142 143 143 143 144 144 
143 143 143 142 142 142 141 141 141 141 140 140 140 139 139 139 138 138 138 137 137 137 136 136 136 135 135 135 134 134 134 133 133 133 133 132 132 132 131 131 131 130 130 130 129 129 129 128 128 128 127 128 128 128 129 129 129 129 130 130 130 131 131 131 131 132 132 132 133 133 133 133 134 134 134 135 135 135 135 136 136 136 137 137 137 137 138 138 138 139 139 139 139 140 140 140 141 141 141 141 
141 141 140 140 140 139 139 139 139 138 138 138 138 137 137 137 136 136 136 136 135 135 135 135 134 134 134 133 133 133 133 132 132 132 131 131 131 131 130 130 130 130 129 129 129 128 128 128 128 127 127 127 128 128 128 128 129 129 129 129 129 130 130 130 130 131 131 131 131 132 132 132 132 133 133 133 133 134 134 134 134 134 135 135 135 135 136 136 136 136 137 137 137 137 138 138 138 138 138 139 
138 138 138 138 137 137 137 137 136 136 136 136 136 135 135 135 135 134 134 134 134 133 133 133 133 133 132 132 132 132 131 131 131 131 130 130 130 130 130 129 129 129 129 128 128 128 128 127 127 127 127 127 127 127 128 128 128 128 128 128 129 129 129 129 129 130 130 130 130 130 131 131 131 131 131 132 132 132 132 132 132 133 133 133 133 133 134 134 134 134 134 135 135 135 135 135 136 136 136 136 
136 136 135 135 135 135 135 134 134 134 134 134 134 133 133 133 133 133 132 132 132 132 132 131 131 131 131 131 131 130 130 130 130 130 129 129 129 129 129 128 128 128 128 128 128 127 127 127 127 127 126 127 127 127 127 127 127 127 128 128 128 128 128 128 128 129 129 129 129 129 129 129 130 130 130 130 130 130 130 131 131 131 131 131 131 131 132 132 132 132 132 132 132 133 133 133 133 133 133 133 
133 133 133 133 133 133 132 132 132 132 132 132 132 131 131 131 131 131 131 131 130 130 130 130 130 130 130 129 129 129 129 129 129 129 128 128 128 128 128 128 128 127 127 127 127 127 127 127 126 126 126 126 126 126 126 127 127 127 127 127 127 127 127 127 127 128 128 128 128 128 128 128 128 128 128 128 129 129 129 129 129 129 129 129 129 129 130 130 130 130 130 130 130 130 130 130 131 131 131 131 
131 131 131 130 130 130 130 130 130 130 130 130 130 129 129 129 129 129 129 129 129 129 129 128 128 128 128 128 128 128 128 128 128 127 127 127 127 127 127 127 127 127 127 126 126 126 126 126 126 126 126 126 126 126 126 126 126 126 126 126 126 126 126 126 126 126 127 127 127 127 127 127 127 127 127 127 127 127 127 127 127 127 127 127 127 127 128 128 128 128 128 128 128 128 128 128 128 128 128 128 
128 128 128 128 128 128 128 128 128 128 128 128 128 127 127 127 127 127 127 127 127 127 127 127 127 127 127 127 127 127 127 126 126 126 126 126 126 126 126 126 126 126 126 126 126 126 126 126 126 125 125 125 125 125 125 125 125 125 125 125 125 125 125 125 125 125 125 125 125 125 125 125 125 125 125 125 125 125 125 125 125 125 125 125 125 125 125 125 125 126 126 126 126 126 126 126 126 126 126 126 
126 126 126 126 126 126 126 126 126 126 126 126 126 126 126 126 126 125 125 125 125 125 125 125 125 125 125 125 125 125 125 125 125 125 125 125 125 125 125 125 125 125 125 125 125 125 125 125 125 125 125 125 125 125 125 125 125 125 125 125 125 125 125 125 124 124 124 124 124 124 124 124 124 124 124 124 124 124 124 124 124 124 124 124 124 124 123 123 123 123 123 123 123 123 123 123 123 123 123 123 
123 123 123 123 123 123 123 123 123 123 123 124 124 124 124 124 124 124 124 124 124 124 124 124 124 124 124 124 124 124 124 124 124 124 124 124 124 124 124 124 124 124 125 125 125 125 125 125 125 125 125 125 125 124 124 124 124 124 124 124 124 124 124 124 123 123 123 123 123 123 123 123 123 123 123 122 122 122 122 122 122 122 122 122 122 122 121 121 121 121 121 121 121 121 121 121 121 120 120 120 
121 121 121 121 121 121 121 121 121 121 121 121 122 122 122 122 122 122 122 122 122 122 122 122 122 123 123 123 123 123 123 123 123 123 123 123 123 123 124 124 124 124 124 124 124 124 124 124 124 124 124 124 124 124 124 124 124 123 123 123 123 123 123 123 122 122 122 122 122 122 122 122 121 121 121 121 121 121 121 120 120 120 120 120 120 120 119 119 119 119 119 119 119 118 118 118 118 118 118 118 
118 118 118 118 119 119 119 119 119 119 119 119 120 120 120 120 120 120 120 120 121 121 121 121 121 121 121 121 121 122 122 122 122 122 122 122 122 123 123 123 123 123 123 123 123 124 124 124 124 124 124 124 124 124 123 123 123 123 123 122 122 122 122 122 121 121 121 121 121 121 120 120 120 120 120 119 119 119 119 119 118 118 118 118 118 118 117 117 117 117 117 116 116 116 116 116 116 115 115 115 
116 116 116 116 116 116 117 117 117 117 117 117 118 118 118 118 118 118 119 119 119 119 119 119 120 120 120 120 120 120 120 121 121 121 121 121 121 122 122 122 122 122 122 123 123 123 123 123 123 124 124 124 123 123 123 123 122 122 122 122 121 121 121 121 120 120 120 120 120 119 119 119 119 118 118 118 118 117 117 117 117 117 116 116 116 116 115 115 115 115 114 114 114 114 113 113 113 113 113 112 
113 113 113 114 114 114 114 114 115 115 115 115 116 116 116 116 116 117 117 117 117 117 118 118 118 118 118 119 119 119 119 119 120 120 120 120 121 121 121 121 121 122 122 122 122 122 123 123 123 123 123 123 123 123 122 122 122 121 121 121 121 120 120 120 120 119 119 119 118 118 118 118 117 117 117 116 116 116 116 115 115 115 114 114 114 114 113 113 113 112 112 112 112 111 111 111 111 110 110 110 